assets/Front-facing baby chick/Flat/front-facing_baby_chick_flat.svg

<svg width="32" height="32" viewBox="0 0 32 32" fill="none" xmlns="http://www.w3.org/2000/svg">
<path d="M14.25 28.5H17.75L17.73 22.5H19.23L19.25 28.5H20.52C21.25 28.5 21.86 29.02 21.99 29.71C22.02 29.86 21.9 30 21.74 30H10.24C10.08 30 9.96003 29.86 9.99003 29.71C10.13 29.02 10.73 28.5 11.46 28.5H12.75L12.73 22.5H14.23L14.25 28.5Z" fill="#FF822D"/>
<path d="M11.47 14.6C11.48 13.28 11.1 12.04 10.45 11L2.31001 19.14C1.79001 19.66 1.98001 20.54 2.67001 20.78C3.37001 21.03 4.13001 21.16 4.92001 21.15C8.50001 21.11 11.43 18.19 11.47 14.6Z" fill="#F9C23C"/>
<path d="M20.52 14.61C20.51 13.28 20.88 12.04 21.54 11L29.68 19.15C30.2 19.67 30.01 20.55 29.32 20.79C28.62 21.04 27.86 21.17 27.07 21.16C23.49 21.12 20.56 18.2 20.52 14.61Z" fill="#F9C23C"/>
<path d="M23.19 12.61C23.06 12.43 22.99 12.22 22.99 12C22.99 8.35 20.2 5.36 16.64 5.03C16.43 5.01 16.21 5 15.99 5C15.77 5 15.55 5.01 15.34 5.03C11.78 5.36 8.98999 8.36 8.98999 12C8.98999 12.22 8.91999 12.43 8.78999 12.61C7.65999 14.11 6.98999 15.98 6.98999 18C6.98999 22.97 11.02 27 15.99 27C20.96 27 24.99 22.97 24.99 18C24.99 15.98 24.32 14.11 23.19 12.61Z" fill="#FCD53F"/>
<path d="M13 10.5C13 10.7761 12.7761 11 12.5 11C12.2239 11 12 10.7761 12 10.5C12 10.2239 12.2239 10 12.5 10C12.7761 10 13 10.2239 13 10.5Z" fill="#212121"/>
<path d="M20 10.5C20 10.7761 19.7761 11 19.5 11C19.2239 11 19 10.7761 19 10.5C19 10.2239 19.2239 10 19.5 10C19.7761 10 20 10.2239 20 10.5Z" fill="#212121"/>
<path d="M15.99 10C14.89 10 13.99 10.9 13.99 12H17.99C17.99 10.9 17.09 10 15.99 10Z" fill="#FF822D"/>
</svg>

<svg xmlns="http://www.w3.org/2000/svg" width="32" height="32" fill="none"><path fill="#FF822D" d="M14.25 28.5h3.5l-.02-6h1.5l.02 6h1.27c.73 0 1.34.52 1.47 1.21.03.15-.09.29-.25.29h-11.5c-.16 0-.28-.14-.25-.29.14-.69.74-1.21 1.47-1.21h1.29l-.02-6h1.5l.02 6Z"/><path fill="#F9C23C" d="M11.47 14.6c.01-1.32-.37-2.56-1.02-3.6l-8.14 8.14c-.52.52-.33 1.4.36 1.64.7.25 1.46.38 2.25.37 3.58-.04 6.51-2.96 6.55-6.55ZM20.52 14.61c-.01-1.33.36-2.57 1.02-3.61l8.14 8.15c.52.52.33 1.4-.36 1.64-.7.25-1.46.38-2.25.37-3.58-.04-6.51-2.96-6.55-6.55Z"/><path fill="#FCD53F" d="M23.19 12.61c-.13-.18-.2-.39-.2-.61a7 7 0 0 0-7.65-6.97c-3.56.33-6.35 3.33-6.35 6.97 0 .22-.07.43-.2.61A8.934 8.934 0 0 0 6.99 18a9 9 0 0 0 18 0c0-2.02-.67-3.89-1.8-5.39Z"/><path fill="#212121" d="M13 10.5a.5.5 0 1 1-1 0 .5.5 0 0 1 1 0ZM20 10.5a.5.5 0 1 1-1 0 .5.5 0 0 1 1 0Z"/><path fill="#FF822D" d="M15.99 10c-1.1 0-2 .9-2 2h4c0-1.1-.9-2-2-2Z"/></svg>
